X:11422
T:Munera de Casa
M:6/8
L:1/8
R:Jig
O:Spain
N:La Musgana, via Floo
K:C
CDE G2G|FEF GFE|CDE G2G|FED E2C|CDE G2G|FEF GFE|CDE G2G|FED C3::
cBA GEF|GEA GFE|CDE G2G|FEF G3|cBA GEF|GEA GFE|CDE G2G|FED C3::
CDE F2(F|F)EF GFE|CDE F2(F|F)ED E2C|CDE F2(F|F)EF GFE|CDE G2G|FED C3:|
